images/focus-locked.svg

<?xml version="1.0" encoding="utf-8"?>
<!-- Generated by IcoMoon.io -->
<!DOCTYPE svg PUBLIC "-//W3C//DTD SVG 1.1//EN" "http://www.w3.org/Graphics/SVG/1.1/DTD/svg11.dtd">
<svg version="1.1" xmlns="http://www.w3.org/2000/svg" xmlns:xlink="http://www.w3.org/1999/xlink" width="32" height="32" viewBox="0 0 32 32">
<g>
</g>
	<path d="M11.069 3.023c-3.699 1.406-6.639 4.348-8.046 8.046h1.023c0.631-1.532 1.567-2.968 2.812-4.212s2.68-2.181 4.211-2.811v-1.022zM20.93 3.023l0 1.022c1.531 0.631 2.967 1.567 4.211 2.812s2.181 2.68 2.812 4.212h1.023c-1.407-3.698-4.348-6.639-8.046-8.046zM6.858 25.141c-1.245-1.244-2.181-2.68-2.812-4.211h-1.022c1.407 3.697 4.348 6.639 8.046 8.046v-1.023c-1.531-0.631-2.967-1.567-4.211-2.812zM28.977 20.931l-1.022 0c-0.631 1.531-1.567 2.967-2.812 4.212s-2.681 2.181-4.213 2.812v1.022c3.698-1.407 6.639-4.348 8.046-8.046z" fill="#000000"></path>
</svg>

<?xml version="1.0" encoding="UTF-8" standalone="no"?>
<!-- Created with Inkscape (http://www.inkscape.org/) -->

<svg
   xmlns:dc="http://purl.org/dc/elements/1.1/"
   xmlns:cc="http://creativecommons.org/ns#"
   xmlns:rdf="http://www.w3.org/1999/02/22-rdf-syntax-ns#"
   xmlns:svg="http://www.w3.org/2000/svg"
   xmlns="http://www.w3.org/2000/svg"
   xmlns:inkscape="http://www.inkscape.org/namespaces/inkscape"
   version="1.1"
   width="32"
   height="32"
   viewBox="0 0 32 32"
   id="svg2">
  <metadata
     id="metadata10">
    <rdf:RDF>
      <cc:Work
         rdf:about="">
        <dc:format>image/svg+xml</dc:format>
        <dc:type
           rdf:resource="http://purl.org/dc/dcmitype/StillImage" />
      </cc:Work>
    </rdf:RDF>
  </metadata>
  <defs
     id="defs8" />
  <path
     d="M 11.07,3.023 C 7.37,4.43 4.43,7.37 3.022,11.07 H 4.045 C 4.675,9.537 5.612,8.1 6.857,6.857 8.102,5.614 9.537,4.677 11.067,4.047 V 3.023 z m 9.86,0 v 1.022 c 1.53,0.63 2.967,1.567 4.21,2.812 1.243,1.245 2.182,2.68 2.813,4.212 h 1.023 C 27.569,7.369 24.628,4.429 20.93,3.019 z M 6.858,25.14 C 5.613,23.897 4.678,22.46 4.046,20.93 H 3.024 c 1.407,3.697 4.348,6.64 8.046,8.046 V 27.953 C 9.54,27.323 8.103,26.386 6.86,25.141 z m 22.12,-4.21 h -1.023 c -0.63,1.532 -1.567,2.968 -2.812,4.213 -1.245,1.245 -2.68,2.18 -4.213,2.812 v 1.022 c 3.698,-1.407 6.64,-4.348 8.046,-8.046 z"
     inkscape:connector-curvature="0"
     id="path4" />
</svg>
